dist/svgs/devui-icons/op/customize-download.svg

<?xml version="1.0" encoding="UTF-8"?>
<svg width="16px" height="16px" viewBox="0 0 16 16" version="1.1" xmlns="http://www.w3.org/2000/svg" xmlns:xlink="http://www.w3.org/1999/xlink">
    <title>操作/定制化下载</title>
    <desc>Created with Sketch.</desc>
    <g id="操作/定制化下载" stroke="none" stroke-width="1" fill="none" fill-rule="evenodd">
        <g id="定制化下载" fill="#293040">
            <path d="M12.0063193,12 C13.9738283,12.0178425 15.6361807,13.4639195 15.9263193,15.41 C15.9496321,15.556754 15.9077811,15.7063775 15.8117118,15.8197394 C15.7156424,15.9331012 15.5749096,15.9989265 15.4263193,16 L8.50631933,16 C8.35772904,15.9989265 8.21699622,15.9331012 8.12092687,15.8197394 C8.02485752,15.7063775 7.98300656,15.556754 8.00631933,15.41 C8.29919495,13.4453077 9.98875014,11.9950344 11.9716548,11.9997691 C10.883078,11.9812068 10.0063193,11.0929924 10.0063193,10 C10.0063193,8.8954305 10.9017498,8 12.0063193,8 C13.1108888,8 14.0063193,8.8954305 14.0063193,10 C14.0063193,11.1045695 13.1108888,12 12.0063193,12 L12.0063193,12 Z M7,16 L1,16 C0.44771525,16 6.76353751e-17,15.5522847 0,15 L0,1 C-6.76353751e-17,0.44771525 0.44771525,1.01453063e-16 1,0 L11,0 C11.5522847,-1.01453063e-16 12,0.44771525 12,1 L12,7 C11.2316456,7 10.5307565,7.28885357 10,7.76389349 L10,2 L2,2 L2,11 L9.17070571,11 C9.2545243,11.2371446 9.36731356,11.460604 9.50482102,11.6661258 C8.00765935,12.529961 7,14.1473048 7,16 L7,16 Z M5,13 L5,14 L7,14 L7,13 L5,13 Z M7,3 L7,7 L9,7 L6,10 L3,7 L5,7 L5,3 L7,3 Z" id="形状"></path>
        </g>
    </g>
</svg>

<svg xmlns="http://www.w3.org/2000/svg" viewBox="0 0 16 16"><path fill-rule="evenodd" d="M12.006 12a4 4 0 013.92 3.41.51.51 0 01-.5.59h-6.92a.51.51 0 01-.5-.59A4 4 0 0111.972 12a2 2 0 11.034 0zM7 16H1a1 1 0 01-1-1V1a1 1 0 011-1h10a1 1 0 011 1v6c-.768 0-1.47.289-2 .764V2H2v9h7.17c.085.237.197.46.335.666A4.998 4.998 0 007 16zm-2-3v1h2v-1H5zM7 3v4h2l-3 3-3-3h2V3h2z"/></svg>
